!! 00000] TT[00
!! NN
!!!OTL: Zhenxin xiangai jie lianli
!!!ARE: Taiwan, Gaoxong (SÅdosten)
!! Ethnic Group: Gaoshan
!! IV, 597
!!!SCT: C0441
!!!YEM: Copyright 1995, estate of Helmut Schaffrath.
**kern
*ICvox
*Ivox
*M2/4
*k[]
*C:
{4.cc
8cc
=1
4.cc
8dd
=2
8.ee
16gg
8ee
8dd
=3
4.cc
8ee}
=4
{8.dd
16cc
8a
8g
=5
4e
8c
8c
=6
8.cc
16cc
8a
8cc
=7
[2g
=8
2g]}
=9
{4.a
8g
=10
4cc
8.ee
16dd
=11
8.cc
16dd
8a
8g
=12
8cc
4e
8d}
=13
{4.c
8d
=14
8.e
16d
8g
8g
=15
8a
8g
8d
8e
=16
[2c
=17
2c]}
==
!!!AGN: Wuge. Biaoda aiqing
!! 
!!!ONB: ESAC (Essen Associative Code) Database: CHINA
!!!AMT: simple duple
!!!AIN: vox
!!!EED: Helmut Schaffrath
!!!EEV: 1.0
*-
!!!ONB: Tied note syntax fixed by Craig Sapp, 2004/05/03/
